images_sukapura_svg/cmd/32/defaultbullet.svg

<svg viewBox="0 0 32 32" xmlns="http://www.w3.org/2000/svg" xmlns:xlink="http://www.w3.org/1999/xlink"><linearGradient id="a" gradientTransform="translate(-25.830508 -3.59322)" gradientUnits="userSpaceOnUse" x1="14" x2="13.79661" y1="22" y2="2.135593"><stop offset="0" stop-color="#0040dd"/><stop offset="1" stop-color="#0a84ff"/></linearGradient><linearGradient id="b" gradientUnits="userSpaceOnUse" x1="6.644068" x2="6.423729" xlink:href="#a" y1="9.144068" y2="3.991525"/><linearGradient id="c" gradientUnits="userSpaceOnUse" x1="6.711865" x2="6.423729" xlink:href="#a" y1="18.940678" y2="14.059322"/><path d="m9 6.5a2.5 2.5 0 0 1 -2.5 2.5 2.5 2.5 0 0 1 -2.5-2.5 2.5 2.5 0 0 1 2.5-2.5 2.5 2.5 0 0 1 2.5 2.5z" fill="url(#b)"/><path d="m9 16.5a2.5 2.5 0 0 1 -2.5 2.5 2.5 2.5 0 0 1 -2.5-2.5 2.5 2.5 0 0 1 2.5-2.5 2.5 2.5 0 0 1 2.5 2.5z" fill="url(#c)"/><g fill="#69696e" transform="scale(-1 1)"><rect height="1" ry=".5" width="14.999998" x="-28" y="4"/><rect height="1" ry=".392136" width="15.000005" x="-28" y="14"/><rect height="1" ry=".436441" width="15.000001" x="-28" y="24"/><rect height="1" ry=".5" width="8.999999" x="-22" y="27"/><rect height="1" ry=".5" width="8.999999" x="-22" y="17"/><rect height="1" ry=".5" width="9.000002" x="-22" y="7"/></g><g fill="#eaeaea" fill-opacity=".992157" transform="matrix(-1 0 0 1 0 1)"><rect height="1" ry=".5" width="14.999998" x="-28" y="4"/><rect height="1" ry=".392136" width="15.000005" x="-28" y="14"/><rect height="1" ry=".436441" width="15.000001" x="-28" y="24"/><rect height="1" ry=".5" width="8.999999" x="-22" y="27"/><rect height="1" ry=".5" width="8.999999" x="-22" y="17"/><rect height="1" ry=".5" width="9.000002" x="-22" y="7"/></g></svg>

<?xml version="1.0" encoding="UTF-8" standalone="no"?>
<svg
   xmlns:dc="http://purl.org/dc/elements/1.1/"
   xmlns:cc="http://creativecommons.org/ns#"
   xmlns:rdf="http://www.w3.org/1999/02/22-rdf-syntax-ns#"
   xmlns:svg="http://www.w3.org/2000/svg"
   xmlns="http://www.w3.org/2000/svg"
   xmlns:xlink="http://www.w3.org/1999/xlink"
   xmlns:sodipodi="http://sodipodi.sourceforge.net/DTD/sodipodi-0.dtd"
   xmlns:inkscape="http://www.inkscape.org/namespaces/inkscape"
   viewBox="0 0 32 32"
   version="1.1"
   id="svg34"
   sodipodi:docname="defaultbullet.svg"
   inkscape:version="0.92.3 (unknown)">
  <metadata
     id="metadata40">
    <rdf:RDF>
      <cc:Work
         rdf:about="">
        <dc:format>image/svg+xml</dc:format>
        <dc:type
           rdf:resource="http://purl.org/dc/dcmitype/StillImage" />
      </cc:Work>
    </rdf:RDF>
  </metadata>
  <defs
     id="defs38">
    <linearGradient
       gradientTransform="translate(-25.830508,-3.5932203)"
       id="a"
       gradientUnits="userSpaceOnUse"
       x1="14"
       x2="13.79661"
       y1="22"
       y2="2.1355929">
      <stop
         offset="0"
         stop-color="#0040dd"
         id="stop2" />
      <stop
         offset="1"
         stop-color="#0a84ff"
         id="stop4" />
    </linearGradient>
    <linearGradient
       inkscape:collect="always"
       xlink:href="#a"
       id="linearGradient1278"
       gradientUnits="userSpaceOnUse"
       gradientTransform="matrix(-1,0,0,1,-29.010942,26.95119)"
       x1="-31.010942"
       y1="-4.95119"
       x2="-31.010942"
       y2="-16.951191" />
    <linearGradient
       inkscape:collect="always"
       xlink:href="#a"
       id="linearGradient874"
       x1="6.6440678"
       y1="9.1440678"
       x2="6.4237289"
       y2="3.9915254"
       gradientUnits="userSpaceOnUse" />
    <linearGradient
       inkscape:collect="always"
       xlink:href="#a"
       id="linearGradient876"
       x1="6.7118645"
       y1="18.940678"
       x2="6.4237289"
       y2="14.059322"
       gradientUnits="userSpaceOnUse" />
  </defs>
  <sodipodi:namedview
     pagecolor="#ffffff"
     bordercolor="#666666"
     borderopacity="1"
     objecttolerance="10"
     gridtolerance="10"
     guidetolerance="10"
     inkscape:pageopacity="0"
     inkscape:pageshadow="2"
     inkscape:window-width="1366"
     inkscape:window-height="706"
     id="namedview36"
     showgrid="false"
     inkscape:zoom="7.375"
     inkscape:cx="3.449869"
     inkscape:cy="8.8233618"
     inkscape:window-x="0"
     inkscape:window-y="0"
     inkscape:window-maximized="1"
     inkscape:current-layer="svg34" />
  <path
     style="fill:url(#linearGradient874);fill-opacity:1"
     d="M 9,6.5 A 2.5,2.5 0 0 1 6.5,9 2.5,2.5 0 0 1 4,6.5 2.5,2.5 0 0 1 6.5,4 2.5,2.5 0 0 1 9,6.5 Z"
     id="circle2" />
  <path
     style="fill:url(#linearGradient876);fill-opacity:1"
     d="M 9,16.5 A 2.5,2.5 0 0 1 6.5,19 2.5,2.5 0 0 1 4,16.5 2.5,2.5 0 0 1 6.5,14 2.5,2.5 0 0 1 9,16.5 Z"
     id="circle4" />
  <g
     fill="#69696e"
     transform="scale(-1 1)"
     id="g18">
    <rect
       height="1"
       ry=".5"
       width="14.999998"
       x="-28"
       y="4"
       id="rect6" />
    <rect
       height="1"
       ry=".392136"
       width="15.000005"
       x="-28"
       y="14"
       id="rect8" />
    <rect
       height="1"
       ry=".436441"
       width="15.000001"
       x="-28"
       y="24"
       id="rect10" />
    <rect
       height="1"
       ry=".5"
       width="8.999999"
       x="-22"
       y="27"
       id="rect12" />
    <rect
       height="1"
       ry=".5"
       width="8.999999"
       x="-22"
       y="17"
       id="rect14" />
    <rect
       height="1"
       ry=".5"
       width="9.000002"
       x="-22"
       y="7"
       id="rect16" />
  </g>
  <g
     fill="#eaeaea"
     fill-opacity=".992157"
     transform="matrix(-1 0 0 1 0 1)"
     id="g32">
    <rect
       height="1"
       ry=".5"
       width="14.999998"
       x="-28"
       y="4"
       id="rect20" />
    <rect
       height="1"
       ry=".392136"
       width="15.000005"
       x="-28"
       y="14"
       id="rect22" />
    <rect
       height="1"
       ry=".436441"
       width="15.000001"
       x="-28"
       y="24"
       id="rect24" />
    <rect
       height="1"
       ry=".5"
       width="8.999999"
       x="-22"
       y="27"
       id="rect26" />
    <rect
       height="1"
       ry=".5"
       width="8.999999"
       x="-22"
       y="17"
       id="rect28" />
    <rect
       height="1"
       ry=".5"
       width="9.000002"
       x="-22"
       y="7"
       id="rect30" />
  </g>
</svg>
